projects/flag-game/flags/Saint Lucia.svg

<svg viewBox="0 0 1000 500" xmlns="http://www.w3.org/2000/svg"><path d="m0 0h1000v500h-1000z" fill="#6cf"/><g fill-rule="evenodd"><path d="m333.332031 456.664062 166.667969-23.332031 166.667969 23.332031-166.667969-411.664062zm0 0" fill="#fff"/><path d="m355.835938 456.664062 144.164062-23.332031 144.164062 23.332031-144.164062-356.664062zm0 0"/><path d="m333.332031 456.664062h333.335938l-166.667969-206.664062zm0 0" fill="#fcd116"/></g></svg>

<?xml version="1.0" encoding="UTF-8"?>
<svg xmlns="http://www.w3.org/2000/svg" xmlns:xlink="http://www.w3.org/1999/xlink" viewBox="0 0 1000 500" version="1.1">
<g id="surface1005">
<rect x="0" y="0" width="1000" height="500" style="fill:rgb(39.99939%,79.998779%,99.998474%);fill-opacity:1;stroke:none;"/>
<path style=" stroke:none;fill-rule:evenodd;fill:rgb(99.998474%,99.998474%,99.998474%);fill-opacity:1;" d="M 333.332031 456.664062 L 500 433.332031 L 666.667969 456.664062 L 500 45 Z M 333.332031 456.664062 "/>
<path style=" stroke:none;fill-rule:evenodd;fill:rgb(0%,0%,0%);fill-opacity:1;" d="M 355.835938 456.664062 L 500 433.332031 L 644.164062 456.664062 L 500 100 Z M 355.835938 456.664062 "/>
<path style=" stroke:none;fill-rule:evenodd;fill:rgb(98.822021%,81.959534%,8.627319%);fill-opacity:1;" d="M 333.332031 456.664062 L 666.667969 456.664062 L 500 250 Z M 333.332031 456.664062 "/>
</g>
</svg>
